X: 293
T: The Honey Moon
C: a Favorite Country Dance
B: John Pringle "Collection of Reels Strathspeys & Jigs", 1801 p.29#3
Z: 2011 John Chambers <jc:trillian.mit.edu>
R: reel
M: 2/4
L: 1/8
K: D
V: 1
|: Addd | dffa | gfed | ceA2 | Addd | dffa | {a}gfge | d2-d2 :|
|: d>A{BAG}A2 | G>d{edc}d2 | AFED | CE{FE^D}E2 | d>A{BAG}A2 | G>d {edc}de | f>ge>f | d2-d2 :|
V: 2 clef=bass middle=d
|: [f2d2]a2 | [f2d2]a2 | efg^g | a2A2 | [f2d2]a2 | [f2d2]a2 | [e2A2]a2 | [f4d4] :|
|: [f2d2]a2 | [g2d2]b2 | dfg^g | aAa2 | [f2d2]a2 | [g2d2]b^g | a2A2 | d2D2 :|

%%sep 2 1 500

